Yaru++/apps/scalable/gparted.svg

<svg enable-background="new" height="256" viewBox="0 0 256 256" width="256" xmlns="http://www.w3.org/2000/svg" xmlns:xlink="http://www.w3.org/1999/xlink"><filter id="a" color-interpolation-filters="sRGB" height="1.241" width="1.08" x="-.04" y="-.12"><feGaussianBlur stdDeviation="2.321"/></filter><linearGradient id="b" gradientTransform="matrix(0 -1 -1 0 308.00017 307.99985)" gradientUnits="userSpaceOnUse" x1="77" x2="227" xlink:href="#c" y1="156" y2="156"/><linearGradient id="c"><stop offset="0" stop-color="#e6e6e6"/><stop offset="1" stop-color="#f2f2f2"/></linearGradient><linearGradient id="d" gradientTransform="matrix(0 .94666648 -.94666648 0 275.01366 -32.718705)" gradientUnits="userSpaceOnUse" x1="77" x2="227" xlink:href="#c" y1="156" y2="156"/><filter id="e" color-interpolation-filters="sRGB" height="1.12" width="1.12" x="-.06" y="-.06"><feGaussianBlur stdDeviation="3.75"/></filter><linearGradient id="f" gradientUnits="userSpaceOnUse" x1="152" x2="152" y1="124" y2="236"><stop offset="0"/><stop offset="1" stop-opacity="0"/></linearGradient><clipPath id="g"><path d="m152 68c-48.60106 0-88 39.39894-88 88s39.39894 88 88 88 88-39.39894 88-88-39.39894-88-88-88z"/></clipPath><filter id="h" color-interpolation-filters="sRGB" height="1.12" width="1.12" x="-.06" y="-.06"><feGaussianBlur stdDeviation="4.4"/></filter><linearGradient id="i" gradientTransform="matrix(0 -.453125 -.45311204 0 253.29054 239.17477)" gradientUnits="userSpaceOnUse" x1="494.345" x2="4.414" y1="386.295" y2="169.657"><stop offset="0" stop-color="#b3b3b3"/><stop offset="1" stop-color="#d9d9d9"/></linearGradient><linearGradient id="j" gradientUnits="userSpaceOnUse" x1="88" x2="488" y1="88" y2="488"><stop offset="0" stop-opacity=".588235"/><stop offset=".88" stop-opacity="0"/><stop offset="1"/></linearGradient><filter id="k" color-interpolation-filters="sRGB" height="1.088" width="1.106" x="-.05" y="-.04"><feGaussianBlur stdDeviation="8.48"/></filter><filter id="l" color-interpolation-filters="sRGB" height="1.022" width="1.026" x="-.01" y="-.01"><feGaussianBlur stdDeviation="2.12"/></filter><path d="m189.84323 74c-70.59344 0-78.18921 7.250835-77.84323 77.98706v146.01294 146.01294c-.34598 70.73623 7.24979 77.98706 77.84323 77.98706h196.31354c70.59344 0 76.00668-7.27384 77.84323-77.98706v-146.01294-146.01294c0-70.737067-7.24979-77.98706-77.84323-77.98706z" filter="url(#l)" opacity=".1" transform="matrix(.5 0 0 .5 -16.666462 -20.825235)"/><path d="m189.84323 74c-70.59344 0-78.18921 7.250835-77.84323 77.98706v146.01294 146.01294c-.34598 70.73623 7.24979 77.98706 77.84323 77.98706h196.31354c70.59344 0 77.84323-7.24999 77.84323-77.98706v-146.01294-146.01294c0-70.737067-7.24979-77.98706-77.84323-77.98706z" fill="url(#j)" filter="url(#k)" opacity=".3" transform="matrix(.5 0 0 .5 -16.666462 -20.825235)"/><path d="m77.145138 13.174765c-36.09882 0-39.98301 3.690158-39.80609 39.689842v74.310163 74.31016c-.17692 35.99969 3.70727 39.68984 39.80609 39.68984h100.387322c36.09881 0 39.80608-3.68973 39.80608-39.68984v-74.31016-74.310163c0-36.000113-3.70727-39.689842-39.80608-39.689842z" opacity=".1"/><path d="m176.40652 15.174765c35.29673 0 39.09461 3.625418 38.92162 38.99353v73.006475 73.00647c.17299 35.36812-3.62489 38.99353-38.92162 38.99353h-98.156762c-35.29672 0-38.92162-3.625-38.92162-38.99353v-73.00647-73.006475c0-35.368533 3.6249-38.99353 38.92162-38.99353z" fill="url(#i)"/><g fill="#fff"><path d="m78.255418 15.174765c-35.29673 0-39.09487 3.626029-38.92188 38.994141v2c-.17299-35.368112 3.62515-38.994141 38.92188-38.994141h98.156242c35.29673 0 38.92188 3.625608 38.92188 38.994141v-2c0-35.368533-3.62515-38.994141-38.92188-38.994141z" opacity=".3"/><path d="m39.327678 127.17477v73.00586c0 35.36853 3.62516 38.99414 38.92188 38.99414h98.156252c35.29673 0 39.09486-3.62602 38.92187-38.99414v-73.00586z" opacity=".2"/><path d="m127.33353 15.174765v224.000005h49.07228c35.29673 0 39.09486-3.62602 38.92187-38.99414v-73.00586-73.005864c.17299-35.368112-3.62514-38.994141-38.92187-38.994141z" opacity=".2"/></g><path d="m78.260818 239.17477c-35.29674 0-39.09488-3.62603-38.92189-38.99414v-2c-.17299 35.36811 3.62515 38.99414 38.92189 38.99414h98.156242c35.29673 0 38.92188-3.62561 38.92188-38.99414v2c0 35.36853-3.62515 38.99414-38.92188 38.99414z" opacity=".2"/><circle cx="127.334" cy="-111.175" fill="#5d5d5d" r="80" transform="scale(1 -1)"/><path d="m47.333708 111.17461a80 80 0 0 1 79.999992-80.000021 80 80 0 0 1 80.00001 80.000021z" opacity=".05"/><path d="m152 70c-48.60106 0-88 39.39894-88 88s39.39894 88 88 88 88-39.39894 88-88-39.39894-88-88-88z" style="opacity:.2;fill:none;stroke-width:11;stroke-linejoin:round;clip-path:url(#g);stroke:url(#f);filter:url(#h)" transform="matrix(.90909091 0 0 .90909091 -10.848122 -30.643417)"/><path d="m127.3337 188.17461c-41.421342 0-74.999992-33.57864-74.999992-75 0-41.421365 33.57865-75.000023 74.999992-75.000023 41.42136 0 75.00001 33.578658 75.00001 75.000023 0 41.42136-33.57865 75-75.00001 75z" filter="url(#e)" opacity=".2"/><path d="m127.33368 182.1746c-39.212202 0-70.999982-31.78777-70.999982-70.99999 0-39.212215 31.78778-70.99999 70.999982-70.99999 39.21221 0 70.99999 31.787775 70.99999 70.99999 0 39.21222-31.78778 70.99999-70.99999 70.99999z" fill="url(#d)"/><g enable-background="new" transform="matrix(.94666559 0 0 .94666566 -16.559632 -36.505235)"><g enable-background="new"><path d="m153.36072 230.98766a75 75 0 0 1 -74.784425-59.69192 75 75 0 0 1 44.727635-84.588855 75 75 0 0 1 91.43635 28.199835l-62.74028 41.09328z" fill="#f76363"/><path d="m209.45333 107.79093a75 75 0 0 1 5.56361 88.8768l-63.01694-40.66773z" fill="#5884f4"/><path d="m195.03903 217.42184a75 75 0 0 1 -62.45046 11.0226l19.41143-72.44444z" fill="#76c22b"/><path d="m219.97308 187.69637a75 75 0 0 1 -30.47308 33.25554l-37.5-64.95191z" fill="#fdc92b"/></g><path d="m152.00017 80.999836c-41.42135 0-75.000002 33.578644-75.000002 75.000004s33.578652 75 75.000002 75 75-33.57864 75-75-33.57865-75.000004-75-75.000004z" fill="url(#b)" opacity=".2"/></g><ellipse cx="127.334" cy="111.174" opacity=".05" rx="32" ry="32"/><ellipse cx="127.334" cy="111.174" fill="#fff" rx="20" ry="20"/><g enable-background="new" opacity=".1" transform="translate(-24.666302 -44.825408)"><circle cx="53.636" cy="185.1" r="2" transform="matrix(.8660254 -.5 .5 .8660254 0 0)"/><circle cx="53.636" cy="237.1" r="2" transform="matrix(.8660254 -.5 .5 .8660254 0 0)"/><circle cx="-59.1" cy="183.636" r="2" transform="matrix(.5 -.8660254 .8660254 .5 0 0)"/><circle cx="-59.1" cy="235.636" r="2" transform="matrix(.5 -.8660254 .8660254 .5 0 0)"/><circle cx="-156" cy="126" r="2" transform="rotate(-90)"/><circle cx="-156" cy="178" r="2" transform="rotate(-90)"/><circle cx="-211.1" cy="27.636" r="2" transform="matrix(-.5 -.8660254 .8660254 -.5 0 0)"/><circle cx="-211.1" cy="79.636" r="2" transform="matrix(-.5 -.8660254 .8660254 -.5 0 0)"/><circle cx="152" cy="130" r="2" transform="matrix(-.8660254 -.5 .5 -.8660254 205.635861 367.099963)"/><circle cx="152" cy="182" r="2" transform="matrix(-.8660254 -.5 .5 -.8660254 205.635861 367.099963)"/><g transform="scale(-1)"><circle cx="-152" cy="-182" r="2"/><circle cx="-152" cy="-130" r="2"/></g></g><ellipse cx="127.334" cy="111.174" opacity=".1" rx="16" ry="16"/><ellipse cx="127.334" cy="111.175" fill="#888" rx="4" ry="4"/><path d="m127.33369 40.174616c-39.212202 0-70.999982 31.787789-70.999982 71.000004 0 .31752.0199.63015.024.94667.50903-38.773865 32.08126-70.053342 70.975952-70.053342 38.89469 0 70.46691 31.279477 70.97596 70.053342.004-.31652.024-.62915.024-.94667 0-39.212215-31.78778-71.000004-71-71.000004z" fill="#fff" opacity=".5"/><path d="m67.333708 31.174587a4 4 0 0 0 -4 4 4 4 0 0 0 4 4 4 4 0 0 0 4-4 4 4 0 0 0 -4-4z" opacity=".1"/><path d="m187.33371 31.174587a4 4 0 0 0 -4 4 4 4 0 0 0 4 4 4 4 0 0 0 4-4 4 4 0 0 0 -4-4z" opacity=".1"/><path d="m211.50536 215.83276s-117.99478 44.0399-124.39638 45.7552c-6.4016 1.71532-12.98164-2.08367-14.69694-8.48526-1.71531-6.40159 2.08368-12.98164 8.48528-14.69695 6.4016-1.71529 130.60804-22.57299 130.60804-22.57299z" filter="url(#a)" opacity=".2" transform="matrix(.96592583 -.25881905 .25881905 .96592583 -77.672461 2.003964)"/><path d="m181.97004 153.80893s-102.575842 73.07858-108.315362 76.39228c-5.73952 3.31373-13.0786 1.34723-16.3923-4.39228-3.31372-5.73951-1.34722-13.0786 4.3923-16.39232 5.73952-3.31369 120.315362-55.60768 120.315362-55.60768z" fill="#fff"/><circle cx="8.456" cy="229.832" fill="#808080" r="4" transform="matrix(.96592583 -.25881905 .25881905 .96592583 0 0)"/><path d="m187.33371 215.17461a4 4 0 0 0 -4 4 4 4 0 0 0 4 4 4 4 0 0 0 4-4 4 4 0 0 0 -4-4z" opacity=".1"/></svg>

<svg xmlns="http://www.w3.org/2000/svg" xmlns:xlink="http://www.w3.org/1999/xlink" style="enable-background:new" width="256" height="256" version="1.0" viewBox="0 0 256 256">
 <title id="title4162">
  Adwaita Icon Template
 </title>
 <defs>
  <linearGradient id="linearGradient10247">
   <stop id="stop10243" offset="0" style="stop-color:#010101"/>
   <stop id="stop10245" offset="1" style="stop-color:#010101;stop-opacity:0"/>
  </linearGradient>
  <linearGradient id="linearGradient10232">
   <stop id="stop10228" offset="0" style="stop-color:#47454b"/>
   <stop id="stop10230" offset="1" style="stop-color:#dfdee0"/>
  </linearGradient>
  <linearGradient id="linearGradient1194">
   <stop style="stop-color:#5e5c64" id="stop1190" offset="0"/>
   <stop style="stop-color:#77767b" id="stop1192" offset="1"/>
  </linearGradient>
  <linearGradient id="linearGradient1188">
   <stop id="stop1184" offset="0" style="stop-color:#c0bfbc"/>
   <stop id="stop1186" offset="1" style="stop-color:#f6f5f4"/>
  </linearGradient>
  <linearGradient id="linearGradient1378">
   <stop style="stop-color:#424048" id="stop1366" offset="0"/>
   <stop id="stop1368" offset=".047" style="stop-color:#f6f5f4"/>
   <stop style="stop-color:#949390" id="stop1370" offset=".097"/>
   <stop id="stop1372" offset=".9" style="stop-color:#d5d3cf"/>
   <stop style="stop-color:#f6f5f4" id="stop1374" offset=".95"/>
   <stop style="stop-color:#424048" id="stop1376" offset="1"/>
  </linearGradient>
  <linearGradient id="linearGradient1364">
   <stop id="stop1352" offset="0" style="stop-color:#000000"/>
   <stop style="stop-color:#424048" id="stop1354" offset=".047"/>
   <stop id="stop1356" offset=".097" style="stop-color:#241f31"/>
   <stop style="stop-color:#241f31" id="stop1358" offset=".9"/>
   <stop id="stop1360" offset=".95" style="stop-color:#424048"/>
   <stop id="stop1362" offset="1" style="stop-color:#000000"/>
  </linearGradient>
  <linearGradient id="linearGradient1235">
   <stop style="stop-color:#949390" id="stop1231" offset="0"/>
   <stop style="stop-color:#424048" id="stop1233" offset="1"/>
  </linearGradient>
  <linearGradient id="linearGradient983">
   <stop id="stop979" offset="0" style="stop-color:#000000;stop-opacity:0.25098041"/>
   <stop id="stop981" offset="1" style="stop-color:#000000;stop-opacity:0.03137255"/>
  </linearGradient>
  <linearGradient id="linearGradient1282">
   <stop id="stop1278" offset="0" style="stop-color:#f6f5f4"/>
   <stop id="stop1280" offset="1" style="stop-color:#ffffff"/>
  </linearGradient>
  <linearGradient id="linearGradient1494">
   <stop id="stop1490" offset="0" style="stop-color:#babdb6"/>
   <stop id="stop1492" offset="1" style="stop-color:#babdb6;stop-opacity:0"/>
  </linearGradient>
  <linearGradient id="linearGradient1496" x1="280" x2="280" y1="172" y2="20" gradientUnits="userSpaceOnUse" xlink:href="#linearGradient1494"/>
  <linearGradient id="linearGradient2155" x1="301.624" x2="318.912" y1="113.77" y2="59.234" gradientTransform="matrix(0.25,0,0,0.25,-1e-5,225)" gradientUnits="userSpaceOnUse" xlink:href="#linearGradient1194"/>
  <linearGradient id="linearGradient1057" x1="249" x2="249" y1="125" y2="-112.155" gradientTransform="matrix(0.25,0,0,0.25,-1e-5,225)" gradientUnits="userSpaceOnUse" xlink:href="#linearGradient1188"/>
  <linearGradient id="linearGradient1284" x1="347" x2="323" y1="217" y2="-172" gradientTransform="matrix(0.25,0,0,0.25,-1e-5,225)" gradientUnits="userSpaceOnUse" xlink:href="#linearGradient1282"/>
  <linearGradient id="linearGradient1444-3-9" x1="177" x2="496" y1="619.964" y2="619.964" gradientTransform="matrix(0.25,0,0,0.24305558,-20.00001,91.56432)" gradientUnits="userSpaceOnUse" xlink:href="#linearGradient1378"/>
  <linearGradient id="linearGradient1121" x1="176" x2="495" y1="799.964" y2="799.964" gradientTransform="matrix(0.25,0,0,0.24305558,-20.00001,91.56432)" gradientUnits="userSpaceOnUse" xlink:href="#linearGradient1364"/>
  <radialGradient id="radialGradient1131" cx="128" cy="199.581" r="16" fx="128" fy="199.581" gradientUnits="userSpaceOnUse" xlink:href="#linearGradient983"/>
  <radialGradient id="radialGradient1133" cx="127.937" cy="200.072" r="8" fx="127.937" fy="200.072" gradientTransform="matrix(1.3756505,0,0,1.3756505,-47.996726,-75.471623)" gradientUnits="userSpaceOnUse" xlink:href="#linearGradient1235"/>
  <linearGradient id="linearGradient9681" x1="298.658" x2="328.098" y1="125.793" y2="70.897" gradientTransform="matrix(0.25,0,0,0.25,-1e-5,225)" gradientUnits="userSpaceOnUse" xlink:href="#linearGradient10232"/>
  <radialGradient id="radialGradient10249" cx="62.562" cy="221.951" r="36.044" fx="62.562" fy="221.951" gradientTransform="matrix(0.59826328,0.63515006,-0.1152322,0.10854002,50.709492,158.17297)" gradientUnits="userSpaceOnUse" xlink:href="#linearGradient10247"/>
  <linearGradient id="linearGradient1108" x1="12" x2="19.416" y1="251.713" y2="251.713" gradientTransform="matrix(1.1538452,0,0,1.0344633,-9.8460411,-6.0655371)" gradientUnits="userSpaceOnUse" xlink:href="#linearGradient1106"/>
  <linearGradient id="linearGradient1106">
   <stop id="stop1102" offset="0" style="stop-color:#26a269"/>
   <stop id="stop1104" offset="1" style="stop-color:#2ec27e"/>
  </linearGradient>
  <linearGradient id="linearGradient1098" x1="13.916" x2="116" y1="264.001" y2="264.001" gradientTransform="matrix(1.1538452,0,0,1.0344633,-9.8460411,-6.0655371)" gradientUnits="userSpaceOnUse" xlink:href="#linearGradient1096"/>
  <linearGradient id="linearGradient1096">
   <stop id="stop1092" offset="0" style="stop-color:#e5a50a"/>
   <stop style="stop-color:#f8e45c" id="stop1100" offset=".256"/>
   <stop id="stop1094" offset="1" style="stop-color:#e5a50a"/>
  </linearGradient>
  <filter style="color-interpolation-filters:sRGB" id="filter1469" width="1.08" height="1.241" x="-.04" y="-.12">
   <feGaussianBlur id="feGaussianBlur1471" stdDeviation="2.321"/>
  </filter>
  <linearGradient id="linearGradient1134" x1="77" x2="227" y1="156" y2="156" gradientTransform="matrix(0,-1,-1,0,308.00017,307.99985)" gradientUnits="userSpaceOnUse" xlink:href="#linearGradient1392"/>
  <linearGradient id="linearGradient1392">
   <stop style="stop-color:#e6e6e6" id="stop1388" offset="0"/>
   <stop style="stop-color:#f2f2f2" id="stop1390" offset="1"/>
  </linearGradient>
  <linearGradient id="linearGradient2529" x1="77" x2="227" y1="156" y2="156" gradientTransform="matrix(0,0.94666648,-0.94666648,0,275.01366,-32.718705)" gradientUnits="userSpaceOnUse" xlink:href="#linearGradient1392"/>
  <filter style="color-interpolation-filters:sRGB" id="filter1422" width="1.12" height="1.12" x="-.06" y="-.06">
   <feGaussianBlur id="feGaussianBlur1424" stdDeviation="3.75"/>
  </filter>
  <linearGradient id="linearGradient982" x1="152" x2="152" y1="124" y2="236" gradientUnits="userSpaceOnUse" xlink:href="#linearGradient980"/>
  <linearGradient id="linearGradient980">
   <stop style="stop-color:#000000" id="stop976" offset="0"/>
   <stop style="stop-color:#000000;stop-opacity:0" id="stop978" offset="1"/>
  </linearGradient>
  <clipPath id="clipPath999" clipPathUnits="userSpaceOnUse">
   <path style="fill:#5d5d5d" d="m 152,68 c -48.60106,0 -88,39.39894 -88,88 0,48.60106 39.39894,88 88,88 48.60106,0 88,-39.39894 88,-88 0,-48.60106 -39.39894,-88 -88,-88 z"/>
  </clipPath>
  <filter style="color-interpolation-filters:sRGB" id="filter1003" width="1.12" height="1.12" x="-.06" y="-.06">
   <feGaussianBlur id="feGaussianBlur1005" stdDeviation="4.4"/>
  </filter>
  <linearGradient id="linearGradient4226" x1="494.345" x2="4.414" y1="386.295" y2="169.657" gradientTransform="matrix(0,-0.453125,-0.45311204,0,253.29054,239.17477)" gradientUnits="userSpaceOnUse" xlink:href="#linearGradient876"/>
  <linearGradient id="linearGradient876">
   <stop style="stop-color:#b3b3b3" id="stop872" offset="0"/>
   <stop style="stop-color:#d9d9d9" id="stop874" offset="1"/>
  </linearGradient>
  <linearGradient id="linearGradient4358" x1="88" x2="488" y1="88" y2="488" gradientUnits="userSpaceOnUse" xlink:href="#linearGradient4360"/>
  <linearGradient id="linearGradient4360">
   <stop id="stop4362" offset="0" style="stop-color:#000000;stop-opacity:0.58823532"/>
   <stop style="stop-color:#000000;stop-opacity:0" id="stop4364" offset=".88"/>
   <stop id="stop4366" offset="1" style="stop-color:#000000"/>
  </linearGradient>
  <filter style="color-interpolation-filters:sRGB" id="filter4380" width="1.106" height="1.088" x="-.05" y="-.04">
   <feGaussianBlur id="feGaussianBlur4382" stdDeviation="8.48"/>
  </filter>
  <filter style="color-interpolation-filters:sRGB" id="filter4346" width="1.026" height="1.022" x="-.01" y="-.01">
   <feGaussianBlur id="feGaussianBlur4348" stdDeviation="2.12"/>
  </filter>
 </defs>
 <path style="opacity:0.1;filter:url(#filter4346)" d="M 189.84323,74 C 119.24979,74 111.65402,81.250835 112,151.98706 V 298 444.01294 C 111.65402,514.74917 119.24979,522 189.84323,522 H 386.15677 C 456.75021,522 462.16345,514.72616 464,444.01294 V 298 151.98706 C 464,81.249993 456.75021,74 386.15677,74 Z" transform="matrix(0.5,0,0,0.5,-16.666462,-20.825235)"/>
 <path d="M 189.84323,74 C 119.24979,74 111.65402,81.250835 112,151.98706 V 298 444.01294 C 111.65402,514.74917 119.24979,522 189.84323,522 H 386.15677 C 456.75021,522 464,514.75001 464,444.01294 V 298 151.98706 C 464,81.249993 456.75021,74 386.15677,74 Z" transform="matrix(0.5,0,0,0.5,-16.666462,-20.825235)" style="opacity:0.3;fill:url(#linearGradient4358);filter:url(#filter4380)"/>
 <path style="opacity:0.1" d="m 77.145138,13.174765 c -36.09882,0 -39.98301,3.690158 -39.80609,39.689842 v 74.310163 74.31016 c -0.17692,35.99969 3.70727,39.68984 39.80609,39.68984 H 177.53246 c 36.09881,0 39.80608,-3.68973 39.80608,-39.68984 V 127.17477 52.864607 c 0,-36.000113 -3.70727,-39.689842 -39.80608,-39.689842 z"/>
 <path style="fill:url(#linearGradient4226)" d="m 176.40652,15.174765 c 35.29673,0 39.09461,3.625418 38.92162,38.99353 v 73.006475 73.00647 c 0.17299,35.36812 -3.62489,38.99353 -38.92162,38.99353 H 78.249758 c -35.29672,0 -38.92162,-3.625 -38.92162,-38.99353 V 127.17477 54.168295 c 0,-35.368533 3.6249,-38.99353 38.92162,-38.99353 z"/>
 <path style="opacity:0.3;fill:#ffffff" d="m 78.255418,15.174765 c -35.29673,0 -39.09487,3.626029 -38.92188,38.994141 v 2 c -0.17299,-35.368112 3.62515,-38.994141 38.92188,-38.994141 h 98.156242 c 35.29673,0 38.92188,3.625608 38.92188,38.994141 v -2 c 0,-35.368533 -3.62515,-38.994141 -38.92188,-38.994141 z"/>
 <path style="opacity:0.2;fill:#ffffff" d="m 39.327678,127.17477 v 73.00586 c 0,35.36853 3.62516,38.99414 38.92188,38.99414 h 98.156252 c 35.29673,0 39.09486,-3.62602 38.92187,-38.99414 v -73.00586 z"/>
 <path style="opacity:0.2;fill:#ffffff" d="M 127.33353,15.174765 V 239.17477 h 49.07228 c 35.29673,0 39.09486,-3.62602 38.92187,-38.99414 V 127.17477 54.168906 c 0.17299,-35.368112 -3.62514,-38.994141 -38.92187,-38.994141 z"/>
 <path style="opacity:0.2" d="m 78.260818,239.17477 c -35.29674,0 -39.09488,-3.62603 -38.92189,-38.99414 v -2 c -0.17299,35.36811 3.62515,38.99414 38.92189,38.99414 h 98.156242 c 35.29673,0 38.92188,-3.62561 38.92188,-38.99414 v 2 c 0,35.36853 -3.62515,38.99414 -38.92188,38.99414 z"/>
 <circle style="fill:#5d5d5d" cx="127.334" cy="-111.175" r="80" transform="scale(1,-1)"/>
 <path style="opacity:0.05" d="M 47.333708,111.17461 A 80,80 0 0 1 127.3337,31.174589 80,80 0 0 1 207.33371,111.17461 Z"/>
 <path style="opacity:0.2;fill:none;stroke:url(#linearGradient982);stroke-width:11;stroke-linejoin:round;filter:url(#filter1003)" d="m 152,70 c -48.60106,0 -88,39.39894 -88,88 0,48.60106 39.39894,88 88,88 48.60106,0 88,-39.39894 88,-88 0,-48.60106 -39.39894,-88 -88,-88 z" clip-path="url(#clipPath999)" transform="matrix(0.90909091,0,0,0.90909091,-10.848122,-30.643417)"/>
 <path d="m 127.3337,188.17461 c -41.421342,0 -74.999992,-33.57864 -74.999992,-75 0,-41.421365 33.57865,-75.000023 74.999992,-75.000023 41.42136,0 75.00001,33.578658 75.00001,75.000023 0,41.42136 -33.57865,75 -75.00001,75 z" style="opacity:0.2;filter:url(#filter1422)"/>
 <path style="fill:url(#linearGradient2529)" d="m 127.33368,182.1746 c -39.212202,0 -70.999982,-31.78777 -70.999982,-70.99999 0,-39.212215 31.78778,-70.99999 70.999982,-70.99999 39.21221,0 70.99999,31.787775 70.99999,70.99999 0,39.21222 -31.78778,70.99999 -70.99999,70.99999 z"/>
 <g style="enable-background:new" transform="matrix(0.94666559,0,0,0.94666566,-16.559632,-36.505235)">
  <g style="enable-background:new">
   <g>
    <path style="fill:#f76363" d="M 153.36072,230.98766 A 75,75 0 0 1 78.576295,171.29574 75,75 0 0 1 123.30393,86.706885 75,75 0 0 1 214.74028,114.90672 L 152,156 Z"/>
    <path d="m 209.45333,107.79093 a 75,75 0 0 1 5.56361,88.8768 L 152,156 Z" style="fill:#5884f4"/>
    <path style="fill:#76c22b" d="m 195.03903,217.42184 a 75,75 0 0 1 -62.45046,11.0226 L 152,156 Z"/>
    <path d="M 219.97308,187.69637 A 75,75 0 0 1 189.5,220.95191 L 152,156 Z" style="fill:#fdc92b"/>
   </g>
  </g>
  <path d="m 152.00017,80.999836 c -41.42135,0 -75.000002,33.578644 -75.000002,75.000004 0,41.42136 33.578652,75 75.000002,75 41.42135,0 75,-33.57864 75,-75 0,-41.42136 -33.57865,-75.000004 -75,-75.000004 z" style="opacity:0.2;fill:url(#linearGradient1134)"/>
 </g>
 <ellipse style="opacity:0.05" id="ellipse971" cx="127.334" cy="111.174" rx="32" ry="32"/>
 <ellipse id="ellipse966" cx="127.334" cy="111.174" rx="20" ry="20" style="fill:#ffffff"/>
 <g transform="translate(-24.666302,-44.825408)" style="opacity:0.1;enable-background:new">
  <circle cx="53.636" cy="185.1" r="2" transform="rotate(-30)"/>
  <circle cx="53.636" cy="237.1" r="2" transform="rotate(-30)"/>
  <circle cx="-59.1" cy="183.636" r="2" transform="rotate(-60)"/>
  <circle cx="-59.1" cy="235.636" r="2" transform="rotate(-60)"/>
  <circle cx="-156" cy="126" r="2" transform="rotate(-90)"/>
  <circle cx="-156" cy="178" r="2" transform="rotate(-90)"/>
  <circle cx="-211.1" cy="27.636" r="2" transform="rotate(-120)"/>
  <circle cx="-211.1" cy="79.636" r="2" transform="rotate(-120)"/>
  <circle cx="152" cy="130" r="2" transform="rotate(-150,152,156)"/>
  <circle cx="152" cy="182" r="2" transform="rotate(-150,152,156)"/>
  <circle cx="-152" cy="-182" r="2" transform="scale(-1)"/>
  <circle cx="-152" cy="-130" r="2" transform="scale(-1)"/>
 </g>
 <ellipse style="opacity:0.1" id="ellipse1434" cx="127.334" cy="111.174" rx="16" ry="16"/>
 <ellipse style="fill:#888888" id="ellipse1438" cx="127.334" cy="111.175" rx="4" ry="4"/>
 <path style="opacity:0.5;fill:#ffffff" d="m 127.33369,40.174616 c -39.212202,0 -70.999982,31.787789 -70.999982,71.000004 0,0.31752 0.0199,0.63015 0.024,0.94667 0.50903,-38.773865 32.08126,-70.053342 70.975952,-70.053342 38.89469,0 70.46691,31.279477 70.97596,70.053342 0.004,-0.31652 0.024,-0.62915 0.024,-0.94667 0,-39.212215 -31.78778,-71.000004 -71,-71.000004 z"/>
 <path style="opacity:0.1" d="m 67.333708,31.174587 a 4,4 0 0 0 -4,4 4,4 0 0 0 4,4 4,4 0 0 0 4,-4 4,4 0 0 0 -4,-4 z"/>
 <path style="opacity:0.1" d="m 187.33371,31.174587 a 4,4 0 0 0 -4,4 4,4 0 0 0 4,4 4,4 0 0 0 4,-4 4,4 0 0 0 -4,-4 z"/>
 <path d="m 211.50536,215.83276 c 0,0 -117.99478,44.0399 -124.39638,45.7552 -6.4016,1.71532 -12.98164,-2.08367 -14.69694,-8.48526 -1.71531,-6.40159 2.08368,-12.98164 8.48528,-14.69695 6.4016,-1.71529 130.60804,-22.57299 130.60804,-22.57299 z" transform="rotate(-15,-31.22542,295.99244)" style="opacity:0.2;filter:url(#filter1469)"/>
 <path style="fill:#ffffff" d="m 181.97004,153.80893 c 0,0 -102.575842,73.07858 -108.315362,76.39228 -5.73952,3.31373 -13.0786,1.34723 -16.3923,-4.39228 -3.31372,-5.73951 -1.34722,-13.0786 4.3923,-16.39232 5.73952,-3.31369 120.315362,-55.60768 120.315362,-55.60768 z"/>
 <circle style="fill:#808080" cx="8.456" cy="229.832" r="4" transform="rotate(-15)"/>
 <path style="opacity:0.1" d="m 187.33371,215.17461 a 4,4 0 0 0 -4,4 4,4 0 0 0 4,4 4,4 0 0 0 4,-4 4,4 0 0 0 -4,-4 z"/>
</svg>
